X: 17
T:Megan a Gollodd ei Gardas
M:3/4
L:1/8
Q:180
C:Trad
S:Blodau'r Grug Collection Vol. 3
A:Wales
Z:brian_martin12345@yahoo.com
K:G
G2G2G2|F3ED2|G2GB Ac|B3AG2|c4c2|B4B2|AGF2G2|A6:||!
g2gb ag|f2fa gf|e2eg fe|d4d2|g2gb ag|f2fa gf|e2 eg fe|fed2c2|!
B2g2d2|B2g2d2|B2g2d2|ce dc B2|AB cd ec|d2c2B2|A>BG2F2|G6||
